IJSVGExample/IJSVGExample/home.svg

<?xml version="1.0" encoding="UTF-8"?>
<svg width="508" height="508" version="1.1" viewBox="0 0 508 508" xmlns="http://www.w3.org/2000/svg" xmlns:xlink="http://www.w3.org/1999/xlink">
    <!--Generated by IJSVG (https://github.com/iconjar/IJSVG)-->
    <defs>
        <linearGradient id="a" x1="0.145454" x2="0.599999" y1="0.257812" y2="0.570312" gradientTransform="matrix(1,0,0,1,-7.61378e-09,-1.86769e-08)">
            <stop offset="0%" stop-color="#FBDDB2" stop-opacity="0.99"></stop>
            <stop offset="100%" stop-color="#EFA81A" stop-opacity="0.95"></stop>
        </linearGradient>
        <linearGradient id="b" x1="-0.0270271" x2="0.783784" y1="0.46875" y2="0.476562" gradientTransform="matrix(1,0,0,1,3.52391e-08,-2.90476e-08)">
            <stop offset="0%" stop-color="#787878" stop-opacity="0.99"></stop>
            <stop offset="100%" stop-color="#FFF" stop-opacity="0.99"></stop>
        </linearGradient>
        <linearGradient id="c" x1="0.235289" x2="0.672269" y1="0.265619" y2="0.59375" gradientTransform="matrix(1,0,0,1,1.18803e-07,-1.01189e-08)" xlink:href="#b"></linearGradient>
        <linearGradient id="d" x1="0.981639" x2="0.146789" y1="0.0312495" y2="0.601562" gradientTransform="matrix(1,0,0,1,-5.18186e-08,1.7497e-08)" xlink:href="#b"></linearGradient>
        <linearGradient id="e" x1="1.20507" x2="0.102482" y1="0.523438" y2="0.515617" gradientTransform="matrix(1,0,0,1,8.20491e-05,8.70101e-06)" xlink:href="#b"></linearGradient>
        <radialGradient id="f" fx="-0.0123102%" fy="-0.0135221%" cx="-0.000123102" cy="-0.000135221" r="0.981982" gradientTransform="matrix(0.897766,0,0,1.11388,0.194914,0.125151)" xlink:href="#a"></radialGradient>
        <linearGradient id="g" x1="0.242009" x2="0.497717" y1="0.382812" y2="0.507812" gradientTransform="matrix(1,0,0,1,5.50934e-10,1.51001e-09)">
            <stop offset="0%" stop-color="#CA536D" stop-opacity="0.99"></stop>
            <stop offset="100%" stop-color="#A81837" stop-opacity="0.95"></stop>
        </linearGradient>
    </defs>
    <g transform="scale(1.00011)">
        <path fill="url(#a)" fill-rule="evenodd" stroke="#580400" stroke-width="11.905" d="M126.604,52.0403h51.3235v120.598h-51.3235Z"></path>
        <path fill="none" fill-rule="evenodd" stroke="#154850" stroke-linejoin="round" stroke-width="11.905" d="M111.364,481.507c270.797,-1.602 272.4,0 272.4,0l-1.603,-227.534l-134.597,-132.995l-134.598,136.2c-1.603,1.602 1.42109e-14,222.727 -1.602,224.329Z" transform="matrix(1.07519,0,0,1.07519,-12.0839,-29.7941)"></path>
        <path fill="url(#b)" fill-rule="evenodd" d="M117.773,475.097c59.287,0 59.287,-1.602 59.287,-1.602c0,0 0,-171.451 0,-171.451c0,0 -57.685,-43.264 -57.685,-43.264c-3.205,1.602 -1.602,217.92 -1.602,216.317Z" transform="matrix(1.07519,0,0,1.07519,-12.0839,-29.7941)"></path>
        <path fill="url(#c)" fill-rule="evenodd" d="M117.773,258.78l124.983,-126.586l28.844,84.924l-94.54,84.926l-59.287,-43.264Z" transform="matrix(1.07519,0,0,1.07519,-12.0839,-29.7941)"></path>
        <path fill="url(#d)" fill-rule="evenodd" d="M229.938,205.902l22.433,-75.31l123.381,124.983l-59.288,51.275l-86.526,-100.948Z" transform="matrix(1.07519,0,0,1.07519,-12.0839,-29.7941)"></path>
        <path fill="url(#e)" fill-rule="evenodd" d="M314.862,475.098l-1.602,-173.054l64.094,-48.071l1.603,221.125h-64.095Z" transform="matrix(1.07519,0,0,1.07519,-12.0839,-29.7941)"></path>
        <path fill="url(#f)" fill-rule="evenodd" stroke="#580400" stroke-linejoin="round" stroke-width="11.9213" d="M177.06,486.314l-1.602,-153.826c0,-36.854 20.029,-62.491 62.491,-62.491c44.065,0 65.697,30.444 65.697,62.491v153.826c0,0 -126.586,-1.602 -126.586,0Z" transform="matrix(1.07519,0,0,1.07519,-5.19257,-47.0224)"></path>
        <path fill="url(#g)" fill-rule="evenodd" stroke="#580400" stroke-width="11.905" d="M63.293,303.646c150.621,-144.212 150.621,-144.212 150.621,-144.212c0,0 68.901,-1.602 70.503,-1.602c1.603,0 139.405,137.802 139.405,137.802c0,0 32.048,-33.649 32.048,-33.649c0,0 -206.704,-206.704 -206.704,-206.704c0,-1.42109e-14 -216.318,214.716 -216.318,214.716c7.10543e-15,0 30.4448,33.649 30.4448,33.649Z" transform="matrix(1.07519,0,0,1.07519,-12.0839,-29.7941)"></path>
    </g>
</svg>

<?xml version="1.0" standalone="no"?>
<!DOCTYPE svg PUBLIC "-//W3C//DTD SVG 20010904//EN"
"http://www.w3.org/TR/2001/REC-SVG-20010904/DTD/svg10.dtd"
[
 <!ATTLIST svg
  xmlns:xlink CDATA #FIXED "http://www.w3.org/1999/xlink">
]>
<!-- Created with Sodipodi ("http://www.sodipodi.com/") -->
<svg
   xml:space="preserve"
   width="128pt"
   height="128pt"
   viewBox="0 0 507.946 507.946"
   id="svg49"
   sodipodi:version="0.27"
   sodipodi:docname="/mnt/windows/Themes/Work/Blue-Sphere/gohome-2.3.svg"
   sodipodi:docbase="/mnt/windows/Themes/Work/Blue-Sphere/"
   xmlns="http://www.w3.org/2000/svg"
   xmlns:sodipodi="http://sodipodi.sourceforge.net/DTD/sodipodi-0.dtd"
   xmlns:xlink="http://www.w3.org/1999/xlink">
  <defs
     id="defs62">
    <linearGradient
       id="linearGradient96">
      <stop
         offset="0.000000"
         style="stop-color:#fbddb2;stop-opacity:0.992157;"
         id="stop97" />
      <stop
         offset="1.000000"
         style="stop-color:#efa81a;stop-opacity:0.952941;"
         id="stop98" />
    </linearGradient>
    <linearGradient
       id="linearGradient1599">
      <stop
         offset="0.000000"
         style="stop-color:#ca536d;stop-opacity:0.992157;"
         id="stop1600" />
      <stop
         offset="1.000000"
         style="stop-color:#a81837;stop-opacity:0.952941;"
         id="stop1601" />
    </linearGradient>
    <linearGradient
       id="linearGradient1486"
       gradientUnits="userSpaceOnUse"
       style="stroke:#000000;stroke-opacity:0.986014;stroke-width:0.981612;">
      <stop
         offset="0.000000"
         style="stop-color:#787878;stop-opacity:0.992157;"
         id="stop1487" />
      <stop
         offset="1.000000"
         style="stop-color:#ffffff;stop-opacity:0.992157;"
         id="stop1488" />
    </linearGradient>
    <radialGradient
       id="radialGradient66"
       cx="218.9404"
       cy="219.7715"
       r="150.7063"
       fx="218.9404"
       fy="219.7715"
       gradientUnits="userSpaceOnUse"
       style="stroke:#000000;stroke-opacity:0.986014;stroke-width:0.981612;">
      <stop
         offset="0.000000"
         style="stop-color:#ffffff;stop-opacity:1;"
         id="stop67" />
      <stop
         offset="1.000000"
         style="stop-color:#7f7f7f;stop-opacity:0.992157;"
         id="stop68" />
    </radialGradient>
    <radialGradient
       id="radialGradient58"
       cx="218.9404"
       cy="219.7715"
       r="150.7063"
       fx="218.9404"
       fy="219.7715"
       gradientUnits="userSpaceOnUse"
       style="stroke:#000000;stroke-opacity:0.986014;stroke-width:0.981612;">
      <stop
         offset="0.000000"
         style="stop-color:#006c8b;stop-opacity:1;"
         id="stop59" />
      <stop
         offset="1.000000"
         style="stop-color:#bddaff;stop-opacity:1;"
         id="stop60" />
    </radialGradient>
    <linearGradient
       id="Gradient53"
       gradientUnits="userSpaceOnUse"
       style="stroke:#000000;stroke-opacity:0.986014;stroke-width:0.981612;">
      <stop
         offset="0.000000"
         style="stop-color:#787878;stop-opacity:0.8;"
         id="stop55" />
      <stop
         offset="1.000000"
         style="stop-color:#ffffff;stop-opacity:0.529412;"
         id="stop56" />
    </linearGradient>
    <radialGradient
       id="aigrd1"
       cx="218.9404"
       cy="219.7715"
       r="150.7063"
       fx="218.9404"
       fy="219.7715"
       gradientUnits="userSpaceOnUse"
       style="stroke:#000000;stroke-opacity:0.986014;stroke-width:0.981612;">
      <stop
         offset="0.000000"
         style="stop-color:#006c8b;stop-opacity:1;"
         id="stop53" />
      <stop
         offset="1.000000"
         style="stop-color:#bddaff;stop-opacity:1;"
         id="stop54" />
    </radialGradient>
    <linearGradient
       xlink:href="#linearGradient1486"
       id="linearGradient17"
       x1="-0.0270271"
       y1="0.46875"
       x2="0.783784"
       y2="0.476562"
       gradientUnits="objectBoundingBox"
       gradientTransform="matrix(1,0,0,1,3.52391e-08,-2.90476e-08)"
       spreadMethod="pad" />
    <radialGradient
       xlink:href="#linearGradient96"
       id="radialGradient29"
       cx="-0.000123102"
       cy="-0.000135221"
       fx="-0.000123102"
       fy="-0.000135221"
       r="0.981982"
       gradientUnits="objectBoundingBox"
       gradientTransform="matrix(0.897766,0,0,1.11388,0.194914,0.125151)"
       spreadMethod="pad" />
    <linearGradient
       xlink:href="#linearGradient1486"
       id="linearGradient61"
       x1="0.235289"
       y1="0.265619"
       x2="0.672269"
       y2="0.59375"
       gradientUnits="objectBoundingBox"
       gradientTransform="translate(1.18803e-07,-1.01189e-08)"
       spreadMethod="pad" />
    <linearGradient
       xlink:href="#linearGradient1486"
       id="linearGradient62"
       x1="0.981639"
       y1="0.0312495"
       x2="0.146789"
       y2="0.601562"
       gradientUnits="objectBoundingBox"
       gradientTransform="matrix(1,0,0,1,-5.18186e-08,1.7497e-08)"
       spreadMethod="pad" />
    <linearGradient
       xlink:href="#linearGradient96"
       id="linearGradient63"
       x1="0.145454"
       y1="0.257812"
       x2="0.599999"
       y2="0.570312"
       gradientUnits="objectBoundingBox"
       gradientTransform="matrix(1,0,0,1,-7.61378e-09,-1.86769e-08)"
       spreadMethod="pad" />
    <linearGradient
       xlink:href="#linearGradient1486"
       id="linearGradient64"
       x1="1.20507"
       y1="0.523438"
       x2="0.102482"
       y2="0.515617"
       gradientUnits="objectBoundingBox"
       gradientTransform="translate(8.20491e-05,8.70101e-06)"
       spreadMethod="pad" />
    <linearGradient
       id="linearGradient124">
      <stop
         offset="0.000000"
         style="stop-color:#6ace34;stop-opacity:0.992157;"
         id="stop125" />
      <stop
         offset="1.000000"
         style="stop-color:#3d7a35;stop-opacity:0.952941;"
         id="stop126" />
    </linearGradient>
    <linearGradient
       id="linearGradient120">
      <stop
         offset="0.000000"
         style="stop-color:#f52755;stop-opacity:0.992157;"
         id="stop121" />
      <stop
         offset="1.000000"
         style="stop-color:#a81837;stop-opacity:0.952941;"
         id="stop122" />
    </linearGradient>
    <linearGradient
       id="linearGradient1857">
      <stop
         offset="0.000000"
         style="stop-color:#fbddc7;stop-opacity:0.992157;"
         id="stop1858" />
      <stop
         offset="1.000000"
         style="stop-color:#efa81a;stop-opacity:0.952941;"
         id="stop1859" />
    </linearGradient>
    <linearGradient
       id="linearGradient168">
      <stop
         offset="0.000000"
         style="stop-color:#cdffff;stop-opacity:1;"
         id="stop169" />
      <stop
         offset="1.000000"
         style="stop-color:#0c5d7d;stop-opacity:0.905882;"
         id="stop170" />
    </linearGradient>
    <linearGradient
       id="linearGradient90">
      <stop
         offset="0.000000"
         style="stop-color:#cdffff;stop-opacity:1;"
         id="stop91" />
      <stop
         offset="1.000000"
         style="stop-color:#006b97;stop-opacity:0.905882;"
         id="stop92" />
    </linearGradient>
    <linearGradient
       id="linearGradient67">
      <stop
         offset="0.000000"
         style="stop-color:#d7ffff;stop-opacity:0.898039;"
         id="stop70" />
      <stop
         offset="1.000000"
         style="stop-color:#2ea6b9;stop-opacity:0.952941;"
         id="stop69" />
    </linearGradient>
    <linearGradient
       id="linearGradient57">
      <stop
         offset="0.000000"
         style="stop-color:#ffffff;stop-opacity:1;"
         id="stop1586" />
      <stop
         offset="1.000000"
         style="stop-color:#797979;stop-opacity:1;"
         id="stop58" />
    </linearGradient>
    <linearGradient
       xlink:href="#linearGradient1599"
       id="linearGradient65"
       x1="0.242009"
       y1="0.382812"
       x2="0.497717"
       y2="0.507812"
       gradientUnits="objectBoundingBox"
       gradientTransform="translate(5.50934e-10,1.51001e-09)"
       spreadMethod="pad" />
  </defs>
  <sodipodi:namedview
     id="base">
    <sodipodi:guide
       orientation="horizontal"
       position="51.078865"
       id="sodipodi:guide46" />
    <sodipodi:guide
       orientation="vertical"
       position="63.596214"
       id="sodipodi:guide47" />
  </sodipodi:namedview>
  <rect
     style="font-size:12;fill:url(#linearGradient63);fill-rule:evenodd;stroke:#580400;stroke-width:11.905;stroke-opacity:0.992157;"
     id="rect14"
     x="126.604012"
     y="52.040340"
     width="51.323492"
     height="120.598160"
     rx="0.000000"
     ry="0.000000" />
  <path
     style="font-size:12;fill:none;fill-rule:evenodd;stroke:#154850;stroke-width:11.905;stroke-linejoin:round;stroke-opacity:0.988235;"
     d="M 111.364 481.507 C 382.161 479.905 383.764 481.507 383.764 481.507 L 382.161 253.973 L 247.564 120.978 L 112.966 257.178 C 111.363 258.78 112.966 479.905 111.364 481.507 z "
     id="path15"
     sodipodi:nodetypes="cccccc"
     transform="matrix(1.07519,0,0,1.07519,-12.0839,-29.7941)" />
  <path
     style="font-size:12;fill:url(#linearGradient17);fill-rule:evenodd;stroke-width:1pt;stroke-opacity:0.99;"
     d="M 117.773 475.097 C 177.06 475.097 177.06 473.495 177.06 473.495 C 177.06 473.495 177.06 302.044 177.06 302.044 C 177.06 302.044 119.375 258.78 119.375 258.78 C 116.17 260.382 117.773 476.7 117.773 475.097 z "
     id="path48"
     sodipodi:nodetypes="ccccc"
     transform="matrix(1.07519,0,0,1.07519,-12.0839,-29.7941)" />
  <path
     style="font-size:12;fill:url(#linearGradient61);fill-rule:evenodd;stroke-width:1pt;stroke-opacity:0.99;"
     d="M 117.773 258.78 L 242.756 132.194 L 271.6 217.118 L 177.06 302.044 L 117.773 258.78 z "
     id="path49"
     sodipodi:nodetypes="ccccc"
     transform="matrix(1.07519,0,0,1.07519,-12.0839,-29.7941)" />
  <path
     style="font-size:12;fill:url(#linearGradient62);fill-rule:evenodd;stroke-width:1pt;stroke-opacity:0.99;"
     d="M 229.938 205.902 L 252.371 130.592 L 375.752 255.575 L 316.464 306.85 L 229.938 205.902 z "
     id="path51"
     sodipodi:nodetypes="ccccc"
     transform="matrix(1.07519,0,0,1.07519,-12.0839,-29.7941)" />
  <path
     style="font-size:12;fill:url(#linearGradient64);fill-rule:evenodd;stroke-width:1pt;stroke-opacity:0.99;"
     d="M 314.862 475.098 L 313.26 302.044 L 377.354 253.973 L 378.957 475.098 L 314.862 475.098 z "
     id="path52"
     sodipodi:nodetypes="ccccc"
     transform="matrix(1.07519,0,0,1.07519,-12.0839,-29.7941)" />
  <path
     style="font-size:12;fill:url(#radialGradient29);fill-rule:evenodd;stroke:#580400;stroke-width:11.9213;stroke-linejoin:round;stroke-opacity:0.992157;"
     d="M 177.06 486.314 L 175.458 332.488 C 175.458 295.634 195.487 269.997 237.949 269.997 C 282.014 269.997 303.646 300.441 303.646 332.488 L 303.646 486.314 C 303.646 486.314 177.06 484.712 177.06 486.314 z "
     id="path13"
     sodipodi:nodetypes="cczccc"
     transform="matrix(1.07519,0,0,1.07519,-5.19257,-47.0224)" />
  <path
     style="font-size:12;fill:url(#linearGradient65);fill-rule:evenodd;stroke:#580400;stroke-width:11.905;stroke-opacity:0.992157;"
     d="M 63.293 303.646 C 213.914 159.434 213.914 159.434 213.914 159.434 C 213.914 159.434 282.815 157.832 284.417 157.832 C 286.02 157.832 423.822 295.634 423.822 295.634 C 423.822 295.634 455.87 261.985 455.87 261.985 C 455.87 261.985 249.166 55.2812 249.166 55.2812 C 249.166 55.2812 32.8482 269.997 32.8482 269.997 C 32.8482 269.997 63.293 303.646 63.293 303.646 z "
     id="path16"
     sodipodi:nodetypes="cccccccc"
     transform="matrix(1.07519,0,0,1.07519,-12.0839,-29.7941)" />
</svg>
